X: 11888
T: Emma
R: waltz
M: 3/4
K: Eminor
|:B>cB GEE|B>cB GEE|F2F/G/ AGF|E>FG/A/ B3|
B>cB GEE|B>cB GEE|F2F/G/ AGF|E>FG/F/ E3:|
|:e>ee edc|B>cB BAG|F2F/G/ AGF|E>FG/A/ B3|
e>ee edc|B>cB BAG|F2F/G/ AGF|E>FG/F/ E3:|

